src/images/global/icons/payment/card-gift.svg

<?xml version="1.0" encoding="UTF-8"?>
<svg width="48px" height="48px" viewBox="0 0 48 48" version="1.1" xmlns="http://www.w3.org/2000/svg" xmlns:xlink="http://www.w3.org/1999/xlink">
    <!-- Generator: Sketch 46.2 (44496) - http://www.bohemiancoding.com/sketch -->
    <title>card/giftcard</title>
    <desc>Created with Sketch.</desc>
    <defs>
        <linearGradient x1="1.38711735%" y1="2.77423469%" x2="50%" y2="100%" id="linearGradient-1">
            <stop stop-color="#EA2C2C" offset="0%"></stop>
            <stop stop-color="#CC0000" offset="100%"></stop>
        </linearGradient>
        <rect id="path-2" x="0" y="0" width="36" height="22" rx="2"></rect>
        <filter x="-9.7%" y="-11.4%" width="119.4%" height="131.8%" filterUnits="objectBoundingBox" id="filter-3">
            <feOffset dx="0" dy="1" in="SourceAlpha" result="shadowOffsetOuter1"></feOffset>
            <feGaussianBlur stdDeviation="1" in="shadowOffsetOuter1" result="shadowBlurOuter1"></feGaussianBlur>
            <feColorMatrix values="0 0 0 0 0.325490196   0 0 0 0 0.376470588   0 0 0 0 0.419607843  0 0 0 1 0" type="matrix" in="shadowBlurOuter1"></feColorMatrix>
        </filter>
    </defs>
    <g id="Symbols" stroke="none" stroke-width="1" fill="none" fill-rule="evenodd">
        <g id="card/giftcard">
            <g id="Icon" transform="translate(6.000000, 13.000000)">
                <g id="Card">
                    <use fill="black" fill-opacity="1" filter="url(#filter-3)" xlink:href="#path-2"></use>
                    <use fill="url(#linearGradient-1)" fill-rule="evenodd" xlink:href="#path-2"></use>
                </g>
                <path d="M11.9911512,10.0936863 C12.1222543,8.98419608 12.5934848,6.98233987 13.4898746,6.11039216 C14.5656608,5.06402614 15.6558164,5.34096732 16.2620017,5.93007843 C16.8432995,6.49661438 17.1948336,7.55448366 16.083494,8.6334902 C15.238953,9.4552549 13.2300386,9.95909804 11.9911512,10.0936863 Z M13.4898746,15.9436732 C12.5934848,15.0718693 12.1222543,13.0695817 11.9911512,11.9603791 C13.2300386,12.0936732 15.238953,12.5985229 16.083494,13.4205752 C17.1948336,14.4994379 16.8432995,15.557451 16.2620017,16.1234118 C15.6558164,16.713098 14.5656608,16.9898954 13.4898746,15.9436732 Z M5.80175122,5.93007843 C6.40838086,5.34096732 7.49868469,5.06402614 8.57387832,6.11039216 C9.46982364,6.98233987 9.94179483,8.98419608 10.0728979,10.0936863 C8.83415873,9.95909804 6.82479989,9.4552549 5.9808514,8.6334902 C4.86951182,7.55448366 5.22045337,6.49661438 5.80175122,5.93007843 Z M5.80175122,16.1234118 C5.22045337,15.557451 4.86951182,14.4994379 5.9808514,13.4205752 C6.82479989,12.5985229 8.83415873,12.0936732 10.0728979,11.9603791 C9.94179483,13.0695817 9.46982364,15.0718693 8.57387832,15.9436732 C7.49868469,16.9898954 6.40838086,16.713098 5.80175122,16.1234118 Z M11.9911512,5.65745098 L11.9911512,0 L10.0728979,0 L10.0728979,5.65745098 C8.81830785,3.44752941 6.05195817,2.83943791 4.34258102,4.50928105 C2.61676043,6.25490196 3.25064767,8.90539869 5.5164353,10.0936863 L0,10.1400713 L0,12.0067641 L5.5164353,11.9603791 C3.25064767,13.1489542 2.61676043,15.7985882 4.34258102,17.5443529 C6.05195817,19.2146275 8.81830785,18.6061046 10.0728979,16.396183 L10.0728979,22 L11.9911512,22 L11.9911512,16.396183 C13.2460376,18.6061046 16.0119429,19.2146275 17.7208756,17.5443529 C19.4469925,15.7985882 18.8134015,13.1489542 16.5482064,11.9603791 L36,12.0530729 L36,10.1863801 L16.5482064,10.0936863 C18.8134015,8.90539869 19.4469925,6.25490196 17.7208756,4.50928105 C16.0119429,2.83943791 13.2460376,3.44752941 11.9911512,5.65745098 Z" id="Fill-3" fill="#FEFEFE"></path>
            </g>
        </g>
    </g>
</svg>

<?xml version="1.0" encoding="utf-8"?>
<!-- Generator: Adobe Illustrator 21.0.2, SVG Export Plug-In . SVG Version: 6.00 Build 0)  -->
<svg version="1.1" id="payment-card-gift-Layer_1" xmlns="http://www.w3.org/2000/svg" xmlns:xlink="http://www.w3.org/1999/xlink" x="0px" y="0px"
	 viewBox="0 0 48 48" style="enable-background:new 0 0 48 48;" xml:space="preserve">
<filter  filterUnits="objectBoundingBox" height="131.8%" id="payment-card-gift-filter-3" width="119.4%" x="-9.7%" y="-11.4%">
	<feOffset  dx="0" dy="1" in="SourceAlpha" result="shadowOffsetOuter1"></feOffset>
	<feGaussianBlur  in="shadowOffsetOuter1" result="shadowBlurOuter1" stdDeviation="1"></feGaussianBlur>
	
		<feColorMatrix  in="shadowBlurOuter1" type="matrix" values="0 0 0 0 0.325490196   0 0 0 0 0.376470588   0 0 0 0 0.419607843  0 0 0 1 0">
		</feColorMatrix>
</filter>
<title>card/giftcard</title>
<desc>Created with Sketch.</desc>
<g id="payment-card-gift-Symbols">
	<g id="payment-card-gift-card_x2F_giftcard">
		<g id="payment-card-gift-Icon" transform="translate(6.000000, 13.000000)">
			<g id="payment-card-gift-Card">
				<g style="filter:url(#payment-card-gift-filter-3);">
					<path id="payment-card-gift-path-2_2_" d="M2,0h32c1.1,0,2,0.9,2,2v18c0,1.1-0.9,2-2,2H2c-1.1,0-2-0.9-2-2V2C0,0.9,0.9,0,2,0z"/>
				</g>
				<g>
					
						<linearGradient id="payment-card-gift-path-2_2_" gradientUnits="userSpaceOnUse" x1="-54.3972" y1="84.7995" x2="-53.9111" y2="83.8273" gradientTransform="matrix(36 0 0 -22 1966 1864)">
						<stop  offset="0" style="stop-color:#EA2C2C"/>
						<stop  offset="1" style="stop-color:#CC0000"/>
					</linearGradient>
					<path id="payment-card-gift-path-2_1_" style="fill:url(#payment-card-gift-path-2_2_);" d="M2,0h32c1.1,0,2,0.9,2,2v18c0,1.1-0.9,2-2,2H2c-1.1,0-2-0.9-2-2V2
						C0,0.9,0.9,0,2,0z"/>
				</g>
			</g>
			<path id="payment-card-gift-Fill-3" style="fill:#FEFEFE;" d="M12,10.1c0.1-1.1,0.6-3.1,1.5-4c1.1-1,2.2-0.8,2.8-0.2c0.6,0.6,0.9,1.6-0.2,2.7
				C15.2,9.5,13.2,10,12,10.1z M13.5,15.9c-0.9-0.9-1.4-2.9-1.5-4c1.2,0.1,3.2,0.6,4.1,1.5c1.1,1.1,0.8,2.1,0.2,2.7
				C15.7,16.7,14.6,17,13.5,15.9z M5.8,5.9c0.6-0.6,1.7-0.9,2.8,0.2c0.9,0.9,1.4,2.9,1.5,4C8.8,10,6.8,9.5,6,8.6
				C4.9,7.6,5.2,6.5,5.8,5.9z M5.8,16.1c-0.6-0.6-0.9-1.6,0.2-2.7c0.8-0.8,2.9-1.3,4.1-1.5c-0.1,1.1-0.6,3.1-1.5,4
				C7.5,17,6.4,16.7,5.8,16.1z M12,5.7V0h-1.9v5.7c-1.3-2.2-4-2.8-5.7-1.1c-1.7,1.7-1.1,4.4,1.2,5.6l-5.5,0V12l5.5,0
				c-2.3,1.2-2.9,3.8-1.2,5.6c1.7,1.7,4.5,1.1,5.7-1.1V22H12v-5.6c1.3,2.2,4,2.8,5.7,1.1c1.7-1.7,1.1-4.4-1.2-5.6L36,12.1v-1.9
				l-19.5-0.1c2.3-1.2,2.9-3.8,1.2-5.6C16,2.8,13.2,3.4,12,5.7z"/>
		</g>
	</g>
</g>
</svg>
